public/images/github.svg

<svg width="16" height="16" viewBox="0 0 16 16" xmlns="http://www.w3.org/2000/svg" aria-hidden="true">
<path d="M5.45352 12.578C5.45352 12.64 5.38218 12.6896 5.29223 12.6896C5.18987 12.6989 5.11854 12.6493 5.11854 12.578C5.11854 12.5159 5.18987 12.4663 5.27982 12.4663C5.37287 12.457 5.45352 12.5066 5.45352 12.578ZM4.48889 12.4384C4.46718 12.5004 4.52921 12.5718 4.62227 12.5904C4.70291 12.6214 4.79596 12.5904 4.81457 12.5283C4.83318 12.4663 4.77425 12.395 4.6812 12.3671C4.60055 12.3454 4.5106 12.3764 4.48889 12.4384ZM5.85984 12.3857C5.76989 12.4074 5.70786 12.4663 5.71716 12.5377C5.72647 12.5997 5.80711 12.64 5.90016 12.6183C5.99011 12.5966 6.05214 12.5377 6.04284 12.4756C6.03353 12.4167 5.94979 12.3764 5.85984 12.3857ZM7.90075 0.5C3.59871 0.5 0.307816 3.76608 0.307816 8.06812C0.307816 11.5079 2.47279 14.4514 5.56518 15.4874C5.96219 15.5587 6.10177 15.3137 6.10177 15.1121C6.10177 14.9198 6.09247 13.859 6.09247 13.2076C6.09247 13.2076 3.92128 13.6729 3.46534 12.2833C3.46534 12.2833 3.11174 11.3807 2.60307 11.1481C2.60307 11.1481 1.89278 10.6611 2.65269 10.6704C2.65269 10.6704 3.42501 10.7325 3.84994 11.4707C4.52921 12.6679 5.66753 12.3236 6.11108 12.1189C6.18242 11.6227 6.38402 11.2784 6.60735 11.0737C4.8735 10.8814 3.12415 10.6301 3.12415 7.64629C3.12415 6.79333 3.35988 6.36529 3.85615 5.8194C3.7755 5.61779 3.51186 4.78653 3.93679 3.71335C4.58504 3.51174 6.07696 4.55081 6.07696 4.55081C6.6973 4.37711 7.36416 4.28716 8.02482 4.28716C8.68548 4.28716 9.35234 4.37711 9.97268 4.55081C9.97268 4.55081 11.4646 3.50864 12.1128 3.71335C12.5378 4.78964 12.2741 5.61779 12.1935 5.8194C12.6898 6.3684 12.9937 6.79643 12.9937 7.64629C12.9937 10.6394 11.1668 10.8783 9.43299 11.0737C9.71834 11.3187 9.96027 11.7839 9.96027 12.5128C9.96027 13.5581 9.95097 14.8515 9.95097 15.1059C9.95097 15.3075 10.0936 15.5525 10.4876 15.4812C13.5892 14.4514 15.6922 11.5079 15.6922 8.06812C15.6922 3.76608 12.2028 0.5 7.90075 0.5ZM3.32266 11.1977C3.28234 11.2287 3.29164 11.3001 3.34437 11.359C3.394 11.4086 3.46534 11.4304 3.50566 11.39C3.54598 11.359 3.53667 11.2877 3.48395 11.2287C3.43432 11.1791 3.36298 11.1574 3.32266 11.1977ZM2.98767 10.9465C2.96596 10.9868 2.99698 11.0364 3.05901 11.0675C3.10864 11.0985 3.17067 11.0892 3.19239 11.0457C3.2141 11.0054 3.18308 10.9558 3.12105 10.9248C3.05901 10.9062 3.00939 10.9155 2.98767 10.9465ZM3.99262 12.0507C3.943 12.091 3.96161 12.1841 4.03294 12.243C4.10428 12.3143 4.19423 12.3236 4.23455 12.274C4.27488 12.2337 4.25627 12.1406 4.19423 12.0817C4.12599 12.0104 4.03294 12.0011 3.99262 12.0507ZM3.63903 11.5947C3.5894 11.6258 3.5894 11.7064 3.63903 11.7777C3.68866 11.8491 3.7724 11.8801 3.81272 11.8491C3.86235 11.8088 3.86235 11.7281 3.81272 11.6568C3.7693 11.5854 3.68866 11.5544 3.63903 11.5947Z"/>
</svg>

<svg xmlns="http://www.w3.org/2000/svg" width="16" height="16" aria-hidden="true"><path d="M5.454 12.578c0 .062-.072.112-.162.112-.102.009-.173-.04-.173-.112 0-.062.07-.112.16-.112.094-.009.175.04.175.112Zm-.965-.14c-.022.062.04.134.133.152.08.031.174 0 .193-.062.018-.062-.04-.133-.134-.16-.08-.023-.17.008-.192.07Zm1.37-.052c-.09.021-.151.08-.142.152.01.062.09.102.183.08.09-.021.152-.08.143-.142-.01-.06-.093-.1-.183-.09ZM7.902.5C3.599.5.308 3.766.308 8.068c0 3.44 2.165 6.383 5.257 7.42.397.07.537-.174.537-.376 0-.192-.01-1.253-.01-1.904 0 0-2.17.465-2.627-.925 0 0-.353-.902-.862-1.135 0 0-.71-.487.05-.478 0 0 .772.063 1.197.8.68 1.198 1.818.854 2.261.649.071-.496.273-.84.496-1.045-1.734-.193-3.483-.444-3.483-3.428 0-.853.236-1.28.732-1.827-.08-.201-.344-1.032.08-2.106.649-.201 2.141.838 2.141.838a7.287 7.287 0 0 1 1.948-.264c.66 0 1.327.09 1.948.264 0 0 1.492-1.042 2.14-.838.425 1.077.161 1.905.08 2.106.497.55.8.977.8 1.827 0 2.993-1.826 3.232-3.56 3.428.285.245.527.71.527 1.439 0 1.045-.009 2.338-.009 2.593 0 .201.143.447.537.375 3.101-1.03 5.204-3.973 5.204-7.413C15.692 3.766 12.202.5 7.901.5ZM3.323 11.198c-.04.03-.031.102.021.161.05.05.121.071.162.031.04-.031.03-.102-.022-.161-.05-.05-.121-.072-.161-.031Zm-.335-.252c-.022.04.009.09.071.122.05.03.112.021.133-.022.022-.04-.009-.09-.071-.121-.062-.019-.112-.01-.133.021Zm1.005 1.105c-.05.04-.031.133.04.192.071.071.161.08.202.031.04-.04.021-.133-.04-.192-.069-.072-.162-.08-.202-.031Zm-.354-.456c-.05.03-.05.111 0 .183.05.071.133.102.174.071.05-.04.05-.12 0-.192-.044-.072-.124-.103-.174-.062Z"/></svg>
